X:1
T: Piece Double Meter
M:4/4
L:1/4
Q:200
K:C
[^F/e3/4]  [F3/^^e/4]  z4/3  [F/e/] z4/ [F/c/] [F2e]| [G2Bg] z5 G z| c3/ G/ z E| E/ A B _B/ A| (3G2eg a f/ 3g/| z/ e c/ d/ B3/|]

[^F/e3/4]  [F3/^^e/4]  z4/3  [F/e/] z4/ [F/c/] [F2e]| [G2Bg] z5 G z| c3/ G/ z E| E/ A B _B/ A| (3G2eg a f/ 3g/| z/ e c/ d/ B3/|]